images/3234807.svg

<?xml version="1.0" encoding="UTF-8"?>
<svg xmlns="http://www.w3.org/2000/svg" xmlns:xlink="http://www.w3.org/1999/xlink" width="300pt" height="300pt" viewBox="0 0 300 300" version="1.1">
<defs>
<g>
<symbol overflow="visible" id="glyph0-0">
<path style="stroke:none;" d="M 0.453125 1.59375 L 0.453125 -6.34375 L 4.953125 -6.34375 L 4.953125 1.59375 Z M 0.953125 1.09375 L 4.453125 1.09375 L 4.453125 -5.84375 L 0.953125 -5.84375 Z M 0.953125 1.09375 "/>
</symbol>
<symbol overflow="visible" id="glyph0-1">
<path style="stroke:none;" d="M 3.546875 -5.953125 C 2.898438 -5.953125 2.382812 -5.710938 2 -5.234375 C 1.625 -4.753906 1.4375 -4.101562 1.4375 -3.28125 C 1.4375 -2.445312 1.625 -1.789062 2 -1.3125 C 2.382812 -0.832031 2.898438 -0.59375 3.546875 -0.59375 C 4.191406 -0.59375 4.703125 -0.832031 5.078125 -1.3125 C 5.453125 -1.789062 5.640625 -2.445312 5.640625 -3.28125 C 5.640625 -4.101562 5.453125 -4.753906 5.078125 -5.234375 C 4.703125 -5.710938 4.191406 -5.953125 3.546875 -5.953125 Z M 3.546875 -6.6875 C 4.460938 -6.6875 5.195312 -6.375 5.75 -5.75 C 6.300781 -5.132812 6.578125 -4.3125 6.578125 -3.28125 C 6.578125 -2.238281 6.300781 -1.410156 5.75 -0.796875 C 5.195312 -0.179688 4.460938 0.125 3.546875 0.125 C 2.617188 0.125 1.878906 -0.179688 1.328125 -0.796875 C 0.773438 -1.410156 0.5 -2.238281 0.5 -3.28125 C 0.5 -4.3125 0.773438 -5.132812 1.328125 -5.75 C 1.878906 -6.375 2.617188 -6.6875 3.546875 -6.6875 Z M 3.546875 -6.6875 "/>
</symbol>
<symbol overflow="visible" id="glyph0-2">
<path style="stroke:none;" d="M 0.890625 -6.5625 L 2.078125 -6.5625 L 4.984375 -1.078125 L 4.984375 -6.5625 L 5.84375 -6.5625 L 5.84375 0 L 4.65625 0 L 1.75 -5.484375 L 1.75 0 L 0.890625 0 Z M 0.890625 -6.5625 "/>
</symbol>
<symbol overflow="visible" id="glyph0-3">
<path style="stroke:none;" d="M 0.890625 -6.5625 L 4.65625 -6.5625 L 4.65625 -5.8125 L 1.765625 -5.8125 L 1.765625 -3.875 L 4.375 -3.875 L 4.375 -3.140625 L 1.765625 -3.140625 L 1.765625 0 L 0.890625 0 Z M 0.890625 -6.5625 "/>
</symbol>
</g>
</defs>
<g id="surface50329">
<rect x="0" y="0" width="300" height="300" style="fill:rgb(100%,100%,100%);fill-opacity:1;stroke:none;"/>
<path style="fill:none;stroke-width:1.2;stroke-linecap:butt;stroke-linejoin:miter;stroke:rgb(0%,0%,0%);stroke-opacity:1;stroke-miterlimit:10;" d="M 35.25 185.40625 L 45.394531 181.878906 "/>
<path style="fill:none;stroke-width:1.2;stroke-linecap:butt;stroke-linejoin:miter;stroke:rgb(100%,0%,0%);stroke-opacity:1;stroke-miterlimit:10;" d="M 45.394531 181.878906 L 55.542969 178.351562 "/>
<path style="fill:none;stroke-width:1.2;stroke-linecap:butt;stroke-linejoin:miter;stroke:rgb(100%,0%,0%);stroke-opacity:1;stroke-miterlimit:10;" d="M 55.542969 178.351562 L 57.5625 167.804688 "/>
<path style="fill:none;stroke-width:1.2;stroke-linecap:butt;stroke-linejoin:miter;stroke:rgb(0%,0%,0%);stroke-opacity:1;stroke-miterlimit:10;" d="M 57.5625 167.804688 L 59.578125 157.253906 "/>
<path style=" stroke:none;fill-rule:nonzero;fill:rgb(100%,100%,100%);fill-opacity:1;" d="M 51.542969 172.851562 L 59.542969 172.851562 L 59.542969 183.851562 L 51.542969 183.851562 Z M 51.542969 172.851562 "/>
<g style="fill:rgb(100%,0%,0%);fill-opacity:1;">
  <use xlink:href="#glyph0-1" x="51.542969" y="181.514648"/>
</g>
<path style="fill:none;stroke-width:1.2;stroke-linecap:butt;stroke-linejoin:miter;stroke:rgb(0%,0%,0%);stroke-opacity:1;stroke-miterlimit:10;" d="M 59.578125 157.253906 L 43.328125 143.207031 "/>
<path style="fill:none;stroke-width:1.2;stroke-linecap:butt;stroke-linejoin:miter;stroke:rgb(0%,0%,0%);stroke-opacity:1;stroke-miterlimit:10;" d="M 61.257812 152.023438 L 48.257812 140.789062 "/>
<path style="fill:none;stroke-width:1.2;stroke-linecap:butt;stroke-linejoin:miter;stroke:rgb(0%,0%,0%);stroke-opacity:1;stroke-miterlimit:10;" d="M 79.871094 150.203125 L 59.578125 157.253906 "/>
<path style="fill:none;stroke-width:1.2;stroke-linecap:butt;stroke-linejoin:miter;stroke:rgb(0%,0%,0%);stroke-opacity:1;stroke-miterlimit:10;" d="M 43.328125 143.207031 L 47.363281 122.109375 "/>
<path style="fill:none;stroke-width:1.2;stroke-linecap:butt;stroke-linejoin:miter;stroke:rgb(0%,0%,0%);stroke-opacity:1;stroke-miterlimit:10;" d="M 47.363281 122.109375 L 67.65625 115.054688 "/>
<path style="fill:none;stroke-width:1.2;stroke-linecap:butt;stroke-linejoin:miter;stroke:rgb(0%,0%,0%);stroke-opacity:1;stroke-miterlimit:10;" d="M 51.054688 126.175781 L 67.285156 120.535156 "/>
<path style="fill:none;stroke-width:1.2;stroke-linecap:butt;stroke-linejoin:miter;stroke:rgb(0%,0%,0%);stroke-opacity:1;stroke-miterlimit:10;" d="M 67.65625 115.054688 L 83.910156 129.101562 "/>
<path style="fill:none;stroke-width:1.2;stroke-linecap:butt;stroke-linejoin:miter;stroke:rgb(0%,0%,0%);stroke-opacity:1;stroke-miterlimit:10;" d="M 83.910156 129.101562 L 79.871094 150.203125 "/>
<path style="fill:none;stroke-width:1.2;stroke-linecap:butt;stroke-linejoin:miter;stroke:rgb(0%,0%,0%);stroke-opacity:1;stroke-miterlimit:10;" d="M 78.542969 130.261719 L 75.308594 147.140625 "/>
<path style="fill:none;stroke-width:1.2;stroke-linecap:butt;stroke-linejoin:miter;stroke:rgb(0%,0%,0%);stroke-opacity:1;stroke-miterlimit:10;" d="M 79.871094 150.203125 L 96.125 164.25 "/>
<path style="fill:none;stroke-width:1.2;stroke-linecap:butt;stroke-linejoin:miter;stroke:rgb(0%,0%,0%);stroke-opacity:1;stroke-miterlimit:10;" d="M 96.125 164.25 L 106.269531 160.722656 "/>
<path style="fill:none;stroke-width:1.2;stroke-linecap:butt;stroke-linejoin:miter;stroke:rgb(0%,0%,100%);stroke-opacity:1;stroke-miterlimit:10;" d="M 106.269531 160.722656 L 116.414062 157.195312 "/>
<path style="fill:none;stroke-width:1.2;stroke-linecap:butt;stroke-linejoin:miter;stroke:rgb(0%,0%,100%);stroke-opacity:1;stroke-miterlimit:10;" d="M 116.414062 157.195312 L 119.527344 146.914062 "/>
<path style="fill:none;stroke-width:1.2;stroke-linecap:butt;stroke-linejoin:miter;stroke:rgb(0%,0%,0%);stroke-opacity:1;stroke-miterlimit:10;" d="M 119.527344 146.914062 L 122.636719 136.636719 "/>
<path style="fill:none;stroke-width:1.2;stroke-linecap:butt;stroke-linejoin:miter;stroke:rgb(0%,0%,0%);stroke-opacity:1;stroke-miterlimit:10;" d="M 134.046875 169.46875 L 125.230469 163.332031 "/>
<path style="fill:none;stroke-width:1.2;stroke-linecap:butt;stroke-linejoin:miter;stroke:rgb(0%,0%,100%);stroke-opacity:1;stroke-miterlimit:10;" d="M 125.230469 163.332031 L 116.414062 157.195312 "/>
<path style=" stroke:none;fill-rule:nonzero;fill:rgb(100%,100%,100%);fill-opacity:1;" d="M 113.414062 151.695312 L 120.414062 151.695312 L 120.414062 162.695312 L 113.414062 162.695312 Z M 113.414062 151.695312 "/>
<g style="fill:rgb(0%,0%,100%);fill-opacity:1;">
  <use xlink:href="#glyph0-2" x="113.414062" y="160.358398"/>
</g>
<path style="fill:none;stroke-width:1.2;stroke-linecap:butt;stroke-linejoin:miter;stroke:rgb(0%,0%,0%);stroke-opacity:1;stroke-miterlimit:10;" d="M 122.636719 136.636719 L 144.113281 136.199219 "/>
<path style=" stroke:none;fill-rule:nonzero;fill:rgb(0%,0%,0%);fill-opacity:1;" d="M 151.167969 156.488281 L 147.695312 134.953125 L 140.535156 137.441406 Z M 151.167969 156.488281 "/>
<path style="fill:none;stroke-width:1.2;stroke-linecap:butt;stroke-linejoin:miter;stroke:rgb(0%,0%,0%);stroke-opacity:1;stroke-miterlimit:10;" d="M 151.167969 156.488281 L 134.046875 169.46875 "/>
<path style="fill:none;stroke-width:1.2;stroke-linecap:butt;stroke-linejoin:miter;stroke:rgb(0%,0%,0%);stroke-opacity:1;stroke-miterlimit:10;" d="M 151.167969 156.488281 L 156.058594 177.40625 "/>
<path style="fill:none;stroke-width:1.2;stroke-linecap:butt;stroke-linejoin:miter;stroke:rgb(0%,0%,0%);stroke-opacity:1;stroke-miterlimit:10;" d="M 166.835938 141.792969 L 151.167969 156.488281 "/>
<path style="fill:none;stroke-width:1.2;stroke-linecap:butt;stroke-linejoin:miter;stroke:rgb(0%,0%,0%);stroke-opacity:1;stroke-miterlimit:10;" d="M 156.058594 177.40625 L 176.621094 183.628906 "/>
<path style="fill:none;stroke-width:1.2;stroke-linecap:butt;stroke-linejoin:miter;stroke:rgb(0%,0%,0%);stroke-opacity:1;stroke-miterlimit:10;" d="M 176.621094 183.628906 L 192.289062 168.933594 "/>
<path style="fill:none;stroke-width:1.2;stroke-linecap:butt;stroke-linejoin:miter;stroke:rgb(0%,0%,0%);stroke-opacity:1;stroke-miterlimit:10;" d="M 192.289062 168.933594 L 189.84375 158.472656 "/>
<path style="fill:none;stroke-width:1.2;stroke-linecap:butt;stroke-linejoin:miter;stroke:rgb(0%,0%,100%);stroke-opacity:1;stroke-miterlimit:10;" d="M 189.84375 158.472656 L 187.398438 148.015625 "/>
<path style="fill:none;stroke-width:1.2;stroke-linecap:butt;stroke-linejoin:miter;stroke:rgb(0%,0%,100%);stroke-opacity:1;stroke-miterlimit:10;" d="M 187.398438 148.015625 L 177.117188 144.90625 "/>
<path style="fill:none;stroke-width:1.2;stroke-linecap:butt;stroke-linejoin:miter;stroke:rgb(0%,0%,0%);stroke-opacity:1;stroke-miterlimit:10;" d="M 177.117188 144.90625 L 166.835938 141.792969 "/>
<path style="fill:none;stroke-width:1.2;stroke-linecap:butt;stroke-linejoin:miter;stroke:rgb(0%,0%,100%);stroke-opacity:1;stroke-miterlimit:10;" d="M 187.398438 148.015625 L 195.230469 140.667969 "/>
<path style="fill:none;stroke-width:1.2;stroke-linecap:butt;stroke-linejoin:miter;stroke:rgb(0%,0%,0%);stroke-opacity:1;stroke-miterlimit:10;" d="M 195.230469 140.667969 L 203.066406 133.320312 "/>
<path style=" stroke:none;fill-rule:nonzero;fill:rgb(100%,100%,100%);fill-opacity:1;" d="M 184.398438 142.515625 L 191.398438 142.515625 L 191.398438 153.515625 L 184.398438 153.515625 Z M 184.398438 142.515625 "/>
<g style="fill:rgb(0%,0%,100%);fill-opacity:1;">
  <use xlink:href="#glyph0-2" x="184.398438" y="151.178711"/>
</g>
<path style="fill:none;stroke-width:1.2;stroke-linecap:butt;stroke-linejoin:miter;stroke:rgb(0%,0%,0%);stroke-opacity:1;stroke-miterlimit:10;" d="M 205.527344 132.742188 L 203.082031 122.285156 "/>
<path style="fill:none;stroke-width:1.2;stroke-linecap:butt;stroke-linejoin:miter;stroke:rgb(100%,0%,0%);stroke-opacity:1;stroke-miterlimit:10;" d="M 203.082031 122.285156 L 200.632812 111.828125 "/>
<path style="fill:none;stroke-width:1.2;stroke-linecap:butt;stroke-linejoin:miter;stroke:rgb(0%,0%,0%);stroke-opacity:1;stroke-miterlimit:10;" d="M 200.605469 133.894531 L 198.160156 123.4375 "/>
<path style="fill:none;stroke-width:1.2;stroke-linecap:butt;stroke-linejoin:miter;stroke:rgb(100%,0%,0%);stroke-opacity:1;stroke-miterlimit:10;" d="M 198.160156 123.4375 L 195.710938 112.976562 "/>
<path style="fill:none;stroke-width:1.2;stroke-linecap:butt;stroke-linejoin:miter;stroke:rgb(0%,0%,0%);stroke-opacity:1;stroke-miterlimit:10;" d="M 203.066406 133.320312 L 223.628906 139.542969 "/>
<path style=" stroke:none;fill-rule:nonzero;fill:rgb(100%,100%,100%);fill-opacity:1;" d="M 194.171875 106.902344 L 202.171875 106.902344 L 202.171875 117.902344 L 194.171875 117.902344 Z M 194.171875 106.902344 "/>
<g style="fill:rgb(100%,0%,0%);fill-opacity:1;">
  <use xlink:href="#glyph0-1" x="194.171875" y="115.56543"/>
</g>
<path style="fill:none;stroke-width:1.2;stroke-linecap:butt;stroke-linejoin:miter;stroke:rgb(0%,0%,0%);stroke-opacity:1;stroke-miterlimit:10;" d="M 223.628906 139.542969 L 228.519531 160.457031 "/>
<path style="fill:none;stroke-width:1.2;stroke-linecap:butt;stroke-linejoin:miter;stroke:rgb(0%,0%,0%);stroke-opacity:1;stroke-miterlimit:10;" d="M 229.039062 140.480469 L 232.953125 157.214844 "/>
<path style="fill:none;stroke-width:1.2;stroke-linecap:butt;stroke-linejoin:miter;stroke:rgb(0%,0%,0%);stroke-opacity:1;stroke-miterlimit:10;" d="M 239.296875 124.84375 L 223.628906 139.542969 "/>
<path style="fill:none;stroke-width:1.2;stroke-linecap:butt;stroke-linejoin:miter;stroke:rgb(0%,0%,0%);stroke-opacity:1;stroke-miterlimit:10;" d="M 228.519531 160.457031 L 249.082031 166.679688 "/>
<path style="fill:none;stroke-width:1.2;stroke-linecap:butt;stroke-linejoin:miter;stroke:rgb(0%,0%,0%);stroke-opacity:1;stroke-miterlimit:10;" d="M 249.082031 166.679688 L 264.75 151.984375 "/>
<path style="fill:none;stroke-width:1.2;stroke-linecap:butt;stroke-linejoin:miter;stroke:rgb(0%,0%,0%);stroke-opacity:1;stroke-miterlimit:10;" d="M 247.191406 161.523438 L 259.726562 149.765625 "/>
<path style="fill:none;stroke-width:1.2;stroke-linecap:butt;stroke-linejoin:miter;stroke:rgb(0%,0%,0%);stroke-opacity:1;stroke-miterlimit:10;" d="M 249.082031 166.679688 L 251.527344 177.140625 "/>
<path style="fill:none;stroke-width:1.2;stroke-linecap:butt;stroke-linejoin:miter;stroke:rgb(20%,80%,80%);stroke-opacity:1;stroke-miterlimit:10;" d="M 251.527344 177.140625 L 253.972656 187.597656 "/>
<path style="fill:none;stroke-width:1.2;stroke-linecap:butt;stroke-linejoin:miter;stroke:rgb(0%,0%,0%);stroke-opacity:1;stroke-miterlimit:10;" d="M 264.75 151.984375 L 259.855469 131.066406 "/>
<path style="fill:none;stroke-width:1.2;stroke-linecap:butt;stroke-linejoin:miter;stroke:rgb(0%,0%,0%);stroke-opacity:1;stroke-miterlimit:10;" d="M 259.855469 131.066406 L 239.296875 124.84375 "/>
<path style="fill:none;stroke-width:1.2;stroke-linecap:butt;stroke-linejoin:miter;stroke:rgb(0%,0%,0%);stroke-opacity:1;stroke-miterlimit:10;" d="M 256.335938 135.28125 L 239.886719 130.304688 "/>
<path style=" stroke:none;fill-rule:nonzero;fill:rgb(100%,100%,100%);fill-opacity:1;" d="M 250.972656 182.097656 L 256.972656 182.097656 L 256.972656 193.097656 L 250.972656 193.097656 Z M 250.972656 182.097656 "/>
<g style="fill:rgb(20%,80%,80%);fill-opacity:1;">
  <use xlink:href="#glyph0-3" x="250.972656" y="190.760742"/>
</g>
</g>
</svg>

<svg xmlns="http://www.w3.org/2000/svg" xmlns:xlink="http://www.w3.org/1999/xlink" width="300pt" height="300pt" viewBox="0 0 300 300"><defs><symbol overflow="visible"><path d="M.453 1.594v-7.938h4.5v7.938zm.5-.5h3.5v-6.938h-3.5zm0 0"/></symbol><symbol overflow="visible" id="a"><path d="M3.547-5.953c-.65 0-1.164.242-1.547.72-.375.48-.563 1.13-.563 1.952 0 .835.188 1.49.563 1.967.383.48.898.72 1.547.72.644 0 1.156-.24 1.53-.72.376-.476.564-1.132.564-1.968 0-.822-.187-1.474-.562-1.954-.375-.477-.887-.72-1.53-.72zm0-.734c.914 0 1.648.312 2.203.937.55.617.828 1.438.828 2.47 0 1.042-.277 1.87-.828 2.483-.555.617-1.29.922-2.203.922-.93 0-1.668-.305-2.22-.922C.774-1.41.5-2.237.5-3.28c0-1.033.273-1.853.828-2.47.55-.625 1.29-.938 2.22-.938zm0 0"/></symbol><symbol overflow="visible" id="b"><path d="M.89-6.563H2.08l2.906 5.485v-5.484h.86V0H4.656L1.75-5.484V0H.89zm0 0"/></symbol><symbol overflow="visible" id="c"><path d="M.89-6.563h3.766v.75h-2.89v1.938h2.61v.734h-2.61V0H.89zm0 0"/></symbol></defs><g><path fill="#fff" d="M0 0h300v300H0z"/><path d="M35.25 185.406l10.145-3.527" stroke-width="1.2" stroke="#000" stroke-miterlimit="10" fill="none"/><path d="M45.395 181.88l10.148-3.528M55.543 178.352l2.02-10.547" stroke-width="1.2" stroke="#f00" stroke-miterlimit="10" fill="none"/><path d="M57.563 167.805l2.015-10.55" stroke-width="1.2" stroke="#000" stroke-miterlimit="10" fill="none"/><path d="M51.543 172.852h8v11h-8zm0 0" fill="#fff"/><use xlink:href="#a" x="51.543" y="181.515" fill="#f00"/><path d="M59.578 157.254l-16.25-14.047M61.258 152.023l-13-11.234M79.87 150.203l-20.292 7.05M43.328 143.207l4.035-21.098M47.363 122.11l20.293-7.055M51.055 126.176l16.23-5.64M67.656 115.055l16.254 14.047M83.91 129.102l-4.04 21.1M78.543 130.262l-3.234 16.88M79.87 150.203l16.255 14.047M96.125 164.25l10.145-3.527" stroke-width="1.2" stroke="#000" stroke-miterlimit="10" fill="none"/><path d="M106.27 160.723l10.144-3.528M116.414 157.195l3.113-10.28" stroke-width="1.2" stroke="#00f" stroke-miterlimit="10" fill="none"/><path d="M119.527 146.914l3.11-10.277M134.047 169.47l-8.817-6.138" stroke-width="1.2" stroke="#000" stroke-miterlimit="10" fill="none"/><path d="M125.23 163.332l-8.816-6.137" stroke-width="1.2" stroke="#00f" stroke-miterlimit="10" fill="none"/><path d="M113.414 151.695h7v11h-7zm0 0" fill="#fff"/><use xlink:href="#b" x="113.414" y="160.358" fill="#00f"/><path d="M122.637 136.637l21.476-.438" stroke-width="1.2" stroke="#000" stroke-miterlimit="10" fill="none"/><path d="M151.168 156.488l-3.473-21.535-7.16 2.488zm0 0"/><path d="M151.168 156.488l-17.12 12.98M151.168 156.488l4.89 20.918M166.836 141.793l-15.668 14.695M156.06 177.406l20.56 6.223M176.62 183.63l15.67-14.696M192.29 168.934l-2.446-10.46" stroke-width="1.2" stroke="#000" stroke-miterlimit="10" fill="none"/><path d="M189.844 158.473l-2.446-10.457M187.398 148.016l-10.28-3.11" stroke-width="1.2" stroke="#00f" stroke-miterlimit="10" fill="none"/><path d="M177.117 144.906l-10.28-3.113" stroke-width="1.2" stroke="#000" stroke-miterlimit="10" fill="none"/><path d="M187.398 148.016l7.832-7.348" stroke-width="1.2" stroke="#00f" stroke-miterlimit="10" fill="none"/><path d="M195.23 140.668l7.836-7.348" stroke-width="1.2" stroke="#000" stroke-miterlimit="10" fill="none"/><path d="M184.398 142.516h7v11h-7zm0 0" fill="#fff"/><use xlink:href="#b" x="184.398" y="151.179" fill="#00f"/><path d="M205.527 132.742l-2.445-10.457" stroke-width="1.2" stroke="#000" stroke-miterlimit="10" fill="none"/><path d="M203.082 122.285l-2.45-10.457" stroke-width="1.2" stroke="#f00" stroke-miterlimit="10" fill="none"/><path d="M200.605 133.895l-2.445-10.458" stroke-width="1.2" stroke="#000" stroke-miterlimit="10" fill="none"/><path d="M198.16 123.438l-2.45-10.46" stroke-width="1.2" stroke="#f00" stroke-miterlimit="10" fill="none"/><path d="M203.066 133.32l20.563 6.223" stroke-width="1.2" stroke="#000" stroke-miterlimit="10" fill="none"/><path d="M194.172 106.902h8v11h-8zm0 0" fill="#fff"/><use xlink:href="#a" x="194.172" y="115.565" fill="#f00"/><path d="M223.63 139.543l4.89 20.914M229.04 140.48l3.913 16.735M239.297 124.844l-15.668 14.7M228.52 160.457l20.562 6.223M249.082 166.68l15.668-14.696M247.19 161.523l12.537-11.757M249.082 166.68l2.445 10.46" stroke-width="1.2" stroke="#000" stroke-miterlimit="10" fill="none"/><path d="M251.527 177.14l2.446 10.458" stroke-width="1.2" stroke="#3cc" stroke-miterlimit="10" fill="none"/><path d="M264.75 151.984l-4.895-20.918M259.855 131.066l-20.558-6.222M256.336 135.28l-16.45-4.975" stroke-width="1.2" stroke="#000" stroke-miterlimit="10" fill="none"/><path d="M250.973 182.098h6v11h-6zm0 0" fill="#fff"/><use xlink:href="#c" x="250.973" y="190.761" fill="#3cc"/></g></svg>
